X:1
T:Billy Pat:terson's Favorite -- Jig
R:jig
B:Ryan's Mammoth Collection
N: 83 422
Z: Contributed by Ray Davies,  ray:davies99.freeserve.co.uk
M:6/8
L:1/8
K:G
ve/f/|\
gfg efg | dBG AGE | DGG FAA | GBB ABd |
gfg efg | dBG AGE | DEG ABc | BGG G2 :|
|:ug|\
edd gdd | edd gdB | def gfe | dBG AGE |
gfg efg | dBG AGE | DEG ABc | BGG G2 :|
